common/app/assets/images/global/plus-neutral1-mask.svg

<svg xmlns="http://www.w3.org/2000/svg" width="32" height="32"><path fill="#333" d="M16 0h-16v16c0-8.8 7.2-16 16-16zm-16 16v16h16c-8.8 0-16-7.2-16-16zm16 16h16v-16c0 8.8-7.2 16-16 16zm0-31c-8.3 0-15 6.7-15 15s6.7 15 15 15 15-6.7 15-15-6.7-15-15-15zm-1 4h2l.5 9.5 9.5.5v2l-9.5.5-.5 9.5h-2l-.5-9.5-9.5-.5v-2l9.5-.5.5-9.5zm1-5c8.8 0 16 7.2 16 16v-16h-16z"/></svg>

<svg xmlns="http://www.w3.org/2000/svg" width="32" height="32"><path fill="#333" d="M16 0H0v16C0 7.2 7.2 0 16 0zM0 16v16h16C7.2 32 0 24.8 0 16zm16 16h16V16c0 8.8-7.2 16-16 16zm0-31C7.7 1 1 7.7 1 16s6.7 15 15 15 15-6.7 15-15S24.3 1 16 1zm-1 4h2l.5 9.5 9.5.5v2l-9.5.5L17 27h-2l-.5-9.5L5 17v-2l9.5-.5L15 5zm1-5c8.8 0 16 7.2 16 16V0H16z"/></svg>
